hero/solid/bookmark-slash.svg

<svg width="24" height="24" viewBox="0 0 24 24" fill="none" xmlns="http://www.w3.org/2000/svg">
<path d="M3.53033 2.46967C3.23744 2.17678 2.76256 2.17678 2.46967 2.46967C2.17678 2.76256 2.17678 3.23744 2.46967 3.53033L20.4697 21.5303C20.7626 21.8232 21.2374 21.8232 21.5303 21.5303C21.8232 21.2374 21.8232 20.7626 21.5303 20.4697L3.53033 2.46967Z" fill="#0F172A"/>
<path d="M20.25 5.50699V17.068L5.85284 2.67086C6.00319 2.62762 6.15925 2.59609 6.32022 2.57741C8.18374 2.36114 10.079 2.25 12 2.25C13.921 2.25 15.8163 2.36114 17.6798 2.57741C19.1772 2.75119 20.25 4.03722 20.25 5.50699Z" fill="#0F172A"/>
<path d="M3.75 21V6.93198L17.8131 20.9951L12 18.0885L4.83541 21.6708C4.60292 21.7871 4.32681 21.7746 4.1057 21.638C3.88459 21.5013 3.75 21.2599 3.75 21Z" fill="#0F172A"/>
</svg>

<svg viewBox="0 0 24 24" xmlns="http://www.w3.org/2000/svg"><path d="M3.53 2.47l0 0c-.31-.29-.78-.27-1.06.03 -.27.28-.27.73 0 1.02l18 18v-.001c.28.3.75.31 1.06.03 .3-.29.31-.76.03-1.06 -.02-.02-.03-.03-.04-.04l-18-18Zm16.72 3.037v11.56L5.853 2.667c.15-.05.3-.08.46-.1l0-.001c3.77-.44 7.58-.44 11.36 0 1.49.17 2.57 1.46 2.57 2.93ZM3.75 21V6.932l14.06 14.063 -5.82-2.91 -7.17 3.58v0c-.38.18-.83.03-1.01-.34 -.06-.11-.08-.22-.08-.34Z"/></svg>
